img/svg/footer-link.svg

<svg width="11" height="11" viewBox="0 0 11 11" fill="none" xmlns="http://www.w3.org/2000/svg">
<path d="M10 0.25C10.1875 0.25 10.375 0.34375 10.5156 0.484375C10.6562 0.625 10.75 0.8125 10.75 1V10C10.75 10.2109 10.6562 10.3984 10.5156 10.5391C10.375 10.6797 10.1875 10.75 10 10.75H1C0.789062 10.75 0.601562 10.6797 0.460938 10.5391C0.320312 10.3984 0.25 10.2109 0.25 10V1C0.25 0.8125 0.320312 0.625 0.460938 0.484375C0.601562 0.34375 0.789062 0.25 1 0.25H10ZM3.41406 9.25H3.4375V4.23438H1.86719V9.25H3.41406ZM2.64062 3.55469C2.875 3.55469 3.08594 3.48438 3.27344 3.29688C3.46094 3.10938 3.55469 2.89844 3.55469 2.66406C3.55469 2.42969 3.46094 2.21875 3.27344 2.03125C3.08594 1.84375 2.875 1.75 2.64062 1.75C2.38281 1.75 2.17188 1.84375 2.00781 2.03125C1.82031 2.21875 1.75 2.42969 1.75 2.66406C1.75 2.89844 1.82031 3.10938 2.00781 3.29688C2.17188 3.48438 2.38281 3.55469 2.64062 3.55469ZM9.25 9.25V6.50781C9.25 5.73438 9.13281 5.17188 8.92188 4.79688C8.61719 4.35156 8.10156 4.11719 7.39844 4.11719C7.02344 4.11719 6.71875 4.21094 6.4375 4.375C6.20312 4.51562 6.01562 4.70312 5.92188 4.91406H5.89844V4.23438H4.39844V9.25H5.94531V6.76562C5.94531 6.39062 5.99219 6.08594 6.10938 5.875C6.25 5.61719 6.50781 5.47656 6.88281 5.47656C7.23438 5.47656 7.46875 5.64062 7.58594 5.92188C7.65625 6.10938 7.70312 6.41406 7.70312 6.8125V9.25H9.25Z" fill="white"/>
</svg>

<svg width="11" height="11" viewBox="0 0 11 11" fill="none" xmlns="http://www.w3.org/2000/svg"><path d="M10 .25c.188 0 .375.094.516.234.14.141.234.329.234.516v9a.763.763 0 01-.75.75H1a.743.743 0 01-.54-.21.743.743 0 01-.21-.54V1A.73.73 0 01.46.484.763.763 0 011 .25h9zm-6.586 9h.023V4.234h-1.57V9.25h1.547zm-.773-5.695c.234 0 .445-.07.632-.258a.874.874 0 00.282-.633.874.874 0 00-.282-.633.874.874 0 00-.632-.281.803.803 0 00-.633.281.849.849 0 00-.258.633c0 .234.07.445.258.633.164.187.375.258.633.258zM9.25 9.25V6.508c0-.774-.117-1.336-.328-1.711-.305-.445-.82-.68-1.524-.68-.375 0-.68.094-.96.258-.235.14-.422.328-.516.54h-.024v-.68h-1.5V9.25h1.547V6.766c0-.375.047-.68.164-.891.141-.258.399-.398.774-.398.351 0 .586.164.703.445.07.187.117.492.117.89V9.25H9.25z" fill="#fff"/></svg>
